svg/500/sharp/loupe.svg

<svg xmlns="http://www.w3.org/2000/svg" width="48" height="48" viewBox="0 -960 960 960"><path d="M447.37-276.565h65.26V-443.37h166.805v-65.26H512.63v-166.805h-65.26v166.805H280.565v65.26H447.37v166.805Zm32.768 202.543q-84.261 0-158.374-31.858-74.112-31.859-129.068-86.816-54.957-54.956-86.816-129.019-31.858-74.063-31.858-158.272 0-84.209 31.858-158.285 31.859-74.076 86.778-129.045 54.919-54.969 129-86.935 74.08-31.966 158.309-31.966T638.3-854.27q74.104 31.947 129.056 86.884 54.951 54.938 86.906 129.059 31.956 74.122 31.956 158.398v405.907h-406.08Zm-.138-68.13q141.418 0 239.633-98.215T817.848-480q0-141.418-98.215-239.633T480-817.848q-141.418 0-239.633 98.215T142.152-480q0 141.418 98.215 239.633T480-142.152ZM480-476Z"/></svg>

<svg xmlns="http://www.w3.org/2000/svg" width="48" height="48" viewBox="0 -960 960 960"><path d="M447.37-276.57h65.26v-166.8h166.8v-65.26h-166.8v-166.8h-65.26v166.8h-166.8v65.26h166.8v166.8Zm32.77 202.55q-84.26 0-158.38-31.86-74.11-31.86-129.06-86.82-54.96-54.95-86.82-129.02-31.86-74.06-31.86-158.27 0-84.21 31.86-158.28 31.86-74.08 86.78-129.05 54.92-54.97 129-86.93 74.08-31.97 158.31-31.97t158.33 31.95q74.1 31.95 129.06 86.88 54.95 54.94 86.9 129.06 31.96 74.13 31.96 158.4v405.91H480.14Zm-.14-68.13q141.42 0 239.63-98.22 98.22-98.21 98.22-239.63 0-141.42-98.22-239.63-98.21-98.22-239.63-98.22-141.42 0-239.63 98.22-98.22 98.21-98.22 239.63 0 141.42 98.22 239.63 98.21 98.22 239.63 98.22ZM480-476Z"/></svg>
